X: 63
T:Tempest Jig
M:6/8
L:1/8
Z:abc by Bruce Osborne - bosborne@kos.net
K:G
d/c/|B2 B Bgf|e2 e efg|ded dcB|BAA A2 d/c/|!
B2 B Bgf|e2 e efg|ded cBA|AGG G2:|!
|:g/a/|b2 g a2 f|gfe d2 c|Bdf gdB|cAA A2 g/a/|!
b2 g a2 f|gfe agf|ded cBA|AGG G2:|!
